X:1
T:Title
%%score ( 1 2 ) { ( 3 5 ) | ( 4 6 ) }
L:1/8
Q:1/4=100
M:3/4
K:Ab
V:1 treble nm="Grand Piano"
V:2 treble 
V:3 bass nm="Grand Piano"
V:5 bass 
V:4 bass 
V:6 bass 
V:1
 z2 z2 [CE]>[CE] | [CA]2 [EA]2 [EB]2 | [Ec]2 [CA]2 [CE]>[CE] | [DF]2 [FA]2 [Fd]2 | %4
 [Ec]4 .[CA]>[DB] | [Ec]2 [Ec]2 [Ed]2 | [Ee]2 [Ee]2 [Ec]>[Ec] | [=DB]2 [DA]2 [Dc]2 | [EB]4 E>[DE] | %9
 [CA]2 [EA]2 [EB]2 | [Ec]2 [CA]2 [CE]>[CE] | [DF]2 [FA]2 [Fd]2 | [Ec]4 .c>d | [Ee]2 [Ee]2 [Ec]2 | %14
 [DB]2 [DA]2[Q:1/4=100] .[EA]>[FB][Q:1/4=12] | [Ec]2 [Ec]2 [DB]2 | [CA]4 [CA]>[DB] | %17
 [Ec]2 [Ec]2 [DB]2 | [CA]4 [CA]>[DB] | [Ec]2 [Ec]2 [Ee]2 | [EB]4 [Ec]>[Ed] | [Ee]2 [Ee]2 [Ec]2 | %22
 [DB]2 [DA]2[Q:1/4=100] [EA]>[FB][Q:1/4=12] | [Ec]2 [Ec]2 [DB]2 | [CA]4 z2 |] %25
V:2
 x6 | x6 | x6 | x6 | x6 | x6 | x6 | x6 | x6 | x6 | x6 | x6 | z2 z2 E2 | x6 | x6 | x6 | x6 | x6 | %18
 x6 | x6 | x6 | x6 | x6 | x6 | x6 |] %25
V:3
 z2 z2 A,>A, | A,2 A,2 G,2 | A,2 A,2 A,>A, | A,2 A,2 A,2 | A,4 A,2 | A,2 A,2 B,2 | C2 C2 A,>A, | %7
 F,2 F,2 A,2 | G,4 G,>G, | A,2 A,2 G,2 | A,2 A,2 A,>A, | A,2 A,2 A,2 | A,4 .A,>B, | C2 C2 A,2 | %14
 z2 z2 A,2 | A,2 A,2 G,2 | A,4 A,2 | A,2 A,2 G,2 | A,4 A,>A, | A,2 A,2 A,2 | G,4 .A,>B, | %21
 C2 C2 A,2 | F,2 F,2 A,2 | A,2 A,2 G,2 | A,4 z2 |] %25
V:4
 z2 z2 A,,>A,, | A,,2 C,2 E,2 | z2 z2 A,,>A,, | D,2 D,2 D,2 | z2 z2 A,,2 | A,,2 A,,2 A,,2 | %6
 A,,2 A,,2 A,,>A,, | B,,2 B,,2 B,,2 | E,4 E,>E, | A,,2 C,2 E,2 | z2 z2 A,,>A,, | D,2 D,2 D,2 | %12
 z2 z2 A,,2 | A,,2 A,,2 C,2 | D,2 D,2 z2 | E,2 E,2 E,2 | A,,4 A,,2 | A,,2 z2 E,2 | z2 z2 A,,>A,, | %19
 A,,2 A,,2 C,2 | E,4 .A,,>A,, | A,,2 A,,2 C,2 | D,2 D,2 C,>D, | E,2 E,2 E,2 | A,,4 z2 |] %25
V:5
 x6 | x6 | x6 | x6 | x6 | x6 | x6 | x6 | x6 | x6 | x6 | x6 | x6 | x6 | F,2 F,2 z z/ D,/ | x6 | x6 | %17
 x6 | x6 | x6 | x6 | x6 | x6 | x6 | x6 |] %25
V:6
 x6 | x6 | x6 | x6 | x6 | x6 | x6 | x6 | x6 | x6 | x6 | x6 | x6 | x6 | z2 z2 C,2- | C,6- | C,6- | %17
 C,4 z2 | x6 | x6 | x6 | x6 | x6 | x6 | x6 |] %25

